assets/img/braze_icons/reflect-01.svg

<svg fill="none" height="24" viewBox="0 0 24 24" width="24" xmlns="http://www.w3.org/2000/svg"><g fill="#801ed7"><path d="m13 3c0-.55228-.4477-1-1-1s-1 .44772-1 1v3c0 .55228.4477 1 1 1s1-.44772 1-1z"/><path d="m3.86965 7.17673 4.43777 3.41367c.12055.0927.25755.198.36753.2992.12193.1123.29967.2973.40563.5737.13249.3457.13249.7281 0 1.0738-.10596.2764-.2837.4613-.40563.5736-.10997.1013-.24696.2066-.3675.2992l-4.43778 3.4137c-.18227.1403-.36921.2841-.53358.3883-.15884.1007-.46286.2775-.85446.2727-.45277-.0055-.87881-.2153-1.15926-.5708-.24257-.3075-.28775-.6563-.30481-.8435-.017649-.1938-.017601-.4297-.01756-.6597v-6.82085c-.000041-.23001-.000088-.46585.01756-.65966.01706-.18728.06224-.53608.30481-.84355.28045-.35549.70649-.56527 1.15926-.57082.3916-.0048.69562.17206.85446.27272.16438.10418.35128.24801.53356.38829z"/><path d="m20.6639 6.78844c.1589-.10066.4629-.27752.8545-.27272.4528.00555.8788.21533 1.1593.57082.2425.30747.2877.65627.3048.84355.0176.19381.0176.42965.0175.65965v6.82086c.0001.23.0001.4659-.0175.6597-.0171.1872-.0623.536-.3048.8435-.2805.3555-.7065.5653-1.1593.5708-.3916.0048-.6956-.172-.8545-.2727-.1644-.1042-.3513-.248-.5335-.3883l-4.4378-3.4136c-.1205-.0927-.2576-.198-.3675-.2993-.122-.1123-.2997-.2972-.4057-.5736-.1325-.3457-.1325-.7281 0-1.0738.106-.2764.2837-.4614.4057-.5737.1099-.1012.2469-.2065.3675-.2992l4.4378-3.41368c.1822-.14027.3691-.2841.5335-.38828z"/><path d="m12 9.5c.5523 0 1 .44772 1 1v3c0 .5523-.4477 1-1 1s-1-.4477-1-1v-3c0-.55228.4477-1 1-1z"/><path d="m13 18c0-.5523-.4477-1-1-1s-1 .4477-1 1v3c0 .5523.4477 1 1 1s1-.4477 1-1z"/></g></svg>

<svg width="24" height="24" viewBox="0 0 24 24" fill="none" xmlns="http://www.w3.org/2000/svg">
<path d="M13 3C13 2.44772 12.5523 2 12 2C11.4477 2 11 2.44772 11 3V6C11 6.55228 11.4477 7 12 7C12.5523 7 13 6.55228 13 6V3Z" fill="#801ED7"/>
<path d="M3.86965 7.17673L8.30742 10.5904C8.42797 10.6831 8.56497 10.7884 8.67495 10.8896C8.79688 11.0019 8.97462 11.1869 9.08058 11.4633C9.21307 11.809 9.21307 12.1914 9.08058 12.5371C8.97462 12.8135 8.79688 12.9984 8.67495 13.1107C8.56498 13.212 8.42799 13.3173 8.30745 13.4099L3.86967 16.8236C3.6874 16.9639 3.50046 17.1077 3.33609 17.2119C3.17725 17.3126 2.87323 17.4894 2.48163 17.4846C2.02886 17.4791 1.60282 17.2693 1.32237 16.9138C1.0798 16.6063 1.03462 16.2575 1.01756 16.0703C0.999911 15.8765 0.999959 15.6406 1 15.4106V8.58975C0.999959 8.35974 0.999912 8.1239 1.01756 7.93009C1.03462 7.74281 1.0798 7.39401 1.32237 7.08654C1.60282 6.73105 2.02886 6.52127 2.48163 6.51572C2.87323 6.51092 3.17725 6.68778 3.33609 6.78844C3.50047 6.89262 3.68737 7.03645 3.86965 7.17673Z" fill="#801ED7"/>
<path d="M20.6639 6.78844C20.8228 6.68778 21.1268 6.51092 21.5184 6.51572C21.9712 6.52127 22.3972 6.73105 22.6777 7.08654C22.9202 7.39401 22.9654 7.74281 22.9825 7.93009C23.0001 8.1239 23.0001 8.35974 23 8.58974V15.4106C23.0001 15.6406 23.0001 15.8765 22.9825 16.0703C22.9654 16.2575 22.9202 16.6063 22.6777 16.9138C22.3972 17.2693 21.9712 17.4791 21.5184 17.4846C21.1268 17.4894 20.8228 17.3126 20.6639 17.2119C20.4995 17.1077 20.3126 16.9639 20.1304 16.8236L15.6926 13.41C15.5721 13.3173 15.435 13.212 15.3251 13.1107C15.2031 12.9984 15.0254 12.8135 14.9194 12.5371C14.7869 12.1914 14.7869 11.809 14.9194 11.4633C15.0254 11.1869 15.2031 11.0019 15.3251 10.8896C15.435 10.7884 15.572 10.6831 15.6926 10.5904L20.1304 7.17672C20.3126 7.03645 20.4995 6.89262 20.6639 6.78844Z" fill="#801ED7"/>
<path d="M12 9.5C12.5523 9.5 13 9.94772 13 10.5V13.5C13 14.0523 12.5523 14.5 12 14.5C11.4477 14.5 11 14.0523 11 13.5V10.5C11 9.94772 11.4477 9.5 12 9.5Z" fill="#801ED7"/>
<path d="M13 18C13 17.4477 12.5523 17 12 17C11.4477 17 11 17.4477 11 18V21C11 21.5523 11.4477 22 12 22C12.5523 22 13 21.5523 13 21V18Z" fill="#801ED7"/>
</svg>
